content/use/signal/icon.svg

<?xml version="1.0" encoding="UTF-8" standalone="no"?>
<!-- Created with Inkscape (http://www.inkscape.org/) -->

<svg
   xmlns:dc="http://purl.org/dc/elements/1.1/"
   xmlns:cc="http://creativecommons.org/ns#"
   xmlns:rdf="http://www.w3.org/1999/02/22-rdf-syntax-ns#"
   xmlns:svg="http://www.w3.org/2000/svg"
   xmlns="http://www.w3.org/2000/svg"
   xmlns:sodipodi="http://sodipodi.sourceforge.net/DTD/sodipodi-0.dtd"
   xmlns:inkscape="http://www.inkscape.org/namespaces/inkscape"
   version="1.1"
   id="svg190"
   xml:space="preserve"
   width="512"
   height="512"
   viewBox="0 0 512 512"
   sodipodi:docname="icon.svg"
   inkscape:version="0.92.4 (unknown)"><metadata
     id="metadata196"><rdf:RDF><cc:Work
         rdf:about=""><dc:format>image/svg+xml</dc:format><dc:type
           rdf:resource="http://purl.org/dc/dcmitype/StillImage" /><dc:title /></cc:Work></rdf:RDF></metadata><defs
     id="defs194"><clipPath
       clipPathUnits="userSpaceOnUse"
       id="clipPath208"><path
         d="M 0,0 H 138 V 139 H 0 Z"
         id="path206"
         inkscape:connector-curvature="0" /></clipPath><clipPath
       clipPathUnits="userSpaceOnUse"
       id="clipPath212"><path
         d="M -306,254 H 444 V -1080 H -306 Z"
         id="path210"
         inkscape:connector-curvature="0"
         style="clip-rule:evenodd" /></clipPath><clipPath
       clipPathUnits="userSpaceOnUse"
       id="clipPath216"><path
         d="m 25.67427,9.015628 2.47459,-7.767814 c 0.15369,-0.483907 0.50182,-0.8792559 0.966,-1.088 0.23209,-0.10753493 0.483,-0.15813958 0.73705,-0.15813958 0.23836,0 0.47986,0.05060465 0.70568,0.14865118 L 38.00332,3.398512 36.57941,6.687814 30.94964,4.230326 29.07723,10.10995 Z"
         id="path214"
         inkscape:connector-curvature="0"
         style="clip-rule:evenodd" /></clipPath><clipPath
       clipPathUnits="userSpaceOnUse"
       id="clipPath220"><path
         d="M 0,0 H 138 V 139 H 0 Z"
         id="path218"
         inkscape:connector-curvature="0" /></clipPath><clipPath
       clipPathUnits="userSpaceOnUse"
       id="clipPath224"><path
         d="M 25,0 H 38 V 11 H 25 Z"
         id="path222"
         inkscape:connector-curvature="0" /></clipPath><clipPath
       clipPathUnits="userSpaceOnUse"
       id="clipPath228"><path
         d="M 38.00332,10.10995 V 0.00167442 l -12.32905,5.4e-7 V 10.10995 Z"
         id="path226"
         inkscape:connector-curvature="0"
         style="clip-rule:evenodd" /></clipPath><linearGradient
       x1="512.10419"
       y1="-13054.61"
       x2="512.1037"
       y2="1024.2"
       gradientUnits="userSpaceOnUse"
       gradientTransform="matrix(1,0,0,-1,25.67427,10.10995)"
       spreadMethod="pad"
       id="linearGradient238"><stop
         style="stop-opacity:1;stop-color:#9adaf4"
         offset="0"
         id="stop234" /><stop
         style="stop-opacity:1;stop-color:#c1dff4"
         offset="1"
         id="stop236" /></linearGradient><clipPath
       clipPathUnits="userSpaceOnUse"
       id="clipPath242"><path
         d="M 38.00332,10.10995 V 0.00167442 l -12.32905,5.4e-7 V 10.10995 Z"
         id="path240"
         inkscape:connector-curvature="0"
         style="clip-rule:evenodd" /></clipPath><linearGradient
       x1="6.1657782"
       y1="-128.8669"
       x2="6.165772"
       y2="10.11025"
       gradientUnits="userSpaceOnUse"
       gradientTransform="matrix(1,0,0,-1,25.67427,10.10995)"
       spreadMethod="pad"
       id="linearGradient252"><stop
         style="stop-opacity:1;stop-color:#9adaf4"
         offset="0"
         id="stop248" /><stop
         style="stop-opacity:1;stop-color:#c1dff4"
         offset="1"
         id="stop250" /></linearGradient><clipPath
       clipPathUnits="userSpaceOnUse"
       id="clipPath256"><path
         d="M -306,254 H 444 V -1080 H -306 Z"
         id="path254"
         inkscape:connector-curvature="0"
         style="clip-rule:evenodd" /></clipPath><clipPath
       clipPathUnits="userSpaceOnUse"
       id="clipPath260"><path
         d="m 59.28982,138.3643 0.46418,-3.5582 c 5.13736,0.68 10.46605,0.7876 15.63477,0.3163 l 0.32618,3.574 C 73.49441,138.8988 71.24564,139 68.99373,139 c -3.25241,0 -6.51423,-0.2119 -9.70391,-0.6357 z m 22.30268,-4.0927 c 5.16245,-0.9456 10.19005,-2.4796 14.95732,-4.5576 l 1.41763,3.2925 c -5.01504,2.1887 -10.30922,3.8017 -15.72886,4.7948 z m -44.31055,-2.5144 1.55878,-3.226 c 4.67318,2.2803 9.63491,4.0199 14.75032,5.1743 l -0.78723,3.5044 c -5.37887,-1.2177 -10.60091,-3.0521 -15.52187,-5.4527 z m 64.88505,-4.8138 c 4.5948,-2.5428 8.8634,-5.6171 12.6772,-9.1373 l 2.415,2.6473 c -4.0239,3.7099 -8.5277,6.9518 -13.3734,9.6307 z m -83.62795,-8.5648 2.53104,-2.5334 c 3.65386,3.6815 7.78446,6.9423 12.27573,9.6813 l -1.85359,3.0679 c -4.73278,-2.8908 -9.09232,-6.3256 -12.95318,-10.2158 z m 100.69925,-5.0383 c 3.5033,-3.9409 6.4734,-8.277 8.8257,-12.8916 l 3.174,1.6415 c -2.4871,4.8834 -5.6298,9.4758 -9.3401,13.6411 z M 5.410227,99.38605 8.662636,97.9027 c 2.129594,4.7189 4.895864,9.1879 8.214134,13.2806 l -2.76313,2.274 c -3.519,-4.3362 -6.448367,-9.0677 -8.703413,-14.07125 z M 130.6076,94.73042 c 1.8661,-4.88968 3.0674,-10.00391 3.566,-15.20354 l 3.5504,0.34475 c -0.5238,5.51907 -1.8003,10.95274 -3.7856,16.14921 z M 0.01254545,76.88279 3.575455,76.71516 c 0.247772,5.22493 1.194954,10.38977 2.81959,15.35535 L 3.004636,93.1933 C 1.2765,87.92093 0.2665909,82.43033 0.01254545,76.88279 Z M 132.1475,57.82698 l 3.4281,-1.00261 c 1.5399,5.32298 2.3585,10.84205 2.4244,16.4054 l -3.5692,0.04428 C 134.3681,68.0333 133.5997,62.84 132.1475,57.82698 Z M 0,70.28205 C 0.1881818,64.19367 0.8562273,58.83907 2.032364,53.92093 l 3.471954,0.83814 C 4.384636,59.44 3.751091,64.5574 3.569182,70.39591 Z m 122.3182,-31.91256 2.8353,-2.17284 c 3.3778,4.44372 6.1441,9.27647 8.2329,14.35591 l -3.2994,1.36316 c -1.9697,-4.78846 -4.5791,-9.34605 -7.7688,-13.54623 z M 3.942409,47.53842 C 5.934,42.09526 8.637545,37.3574 12.21614,33.07814 l 2.73491,2.30251 C 11.64218,39.34679 9.136227,43.72409 7.295182,48.77507 Z M 106.3165,23.52019 108.261,20.51237 c 4.6481,3.03312 8.8947,6.60391 12.6301,10.61749 l -2.6063,2.45116 C 114.747,29.78251 110.723,26.40149 106.3165,23.52019 Z m -89.47736,4.73469 c 1.16045,-1.06269 2.39931,-2.09693 3.69463,-3.08055 l 3.13637,-9.86159 3.39981,1.09749 -3.312,10.40242 c -0.1129,0.3574 -0.33559,0.67051 -0.63354,0.89507 -1.36746,1.02158 -2.67532,2.09693 -3.88596,3.20391 z m 69.48613,-13.52093 0.88446,-3.4759 c 5.34436,1.37265 10.50682,3.36204 15.35877,5.90493 l -1.6529,3.18493 C 96.30832,17.92521 91.40305,16.03702 86.32527,14.73395 Z M 53.80432,14.20893 42.47577,9.265488 43.89968,5.96986 54.648,10.6666 c 1.21691,-0.33525 2.20173,-0.58827 3.0705,-0.784367 l 0.79036,3.501207 c -0.95345,0.21823 -2.07,0.50289 -3.519,0.90772 -0.15681,0.04428 -0.31677,0.06642 -0.47672,0.06642 -0.2415,0 -0.483,-0.0506 -0.70882,-0.14865 z m 15.17059,-1.6573 c -1.83791,0 -3.22105,0.0095 -4.44109,0.05377 L 64.40209,9.015628 c 1.2765,-0.044279 2.69727,-0.053768 4.57282,-0.053768 3.95495,0 7.92245,0.319442 11.78959,0.942512 L 80.19368,13.45302 C 76.51473,12.85209 72.73855,12.55163 68.97491,12.55163 Z"
         id="path258"
         inkscape:connector-curvature="0"
         style="clip-rule:evenodd" /></clipPath><clipPath
       clipPathUnits="userSpaceOnUse"
       id="clipPath264"><path
         d="M 0,0 H 138 V 139 H 0 Z"
         id="path262"
         inkscape:connector-curvature="0" /></clipPath><clipPath
       clipPathUnits="userSpaceOnUse"
       id="clipPath268"><path
         d="M 0,5 H 138 V 139 H 0 Z"
         id="path266"
         inkscape:connector-curvature="0" /></clipPath><clipPath
       clipPathUnits="userSpaceOnUse"
       id="clipPath272"><path
         d="M 138,139 V 5.969858 L -5.70307e-6,5.969864 0,139 Z"
         id="path270"
         inkscape:connector-curvature="0"
         style="clip-rule:evenodd" /></clipPath><linearGradient
       x1="511.9884"
       y1="2.3908709e-05"
       x2="511.98831"
       y2="1069.969"
       gradientUnits="userSpaceOnUse"
       gradientTransform="matrix(1,0,0,-1,-5.70307e-6,139)"
       spreadMethod="pad"
       id="linearGradient282"><stop
         style="stop-opacity:1;stop-color:#9adaf4"
         offset="0"
         id="stop278" /><stop
         style="stop-opacity:1;stop-color:#c1dff4"
         offset="1"
         id="stop280" /></linearGradient><clipPath
       clipPathUnits="userSpaceOnUse"
       id="clipPath286"><path
         d="M 138,139 V 5.969858 L -5.70307e-6,5.969864 0,139 Z"
         id="path284"
         inkscape:connector-curvature="0"
         style="clip-rule:evenodd" /></clipPath><linearGradient
       x1="68.998444"
       y1="3.106034e-06"
       x2="68.998428"
       y2="139.00211"
       gradientUnits="userSpaceOnUse"
       gradientTransform="matrix(1,0,0,-1,-5.70307e-6,139)"
       spreadMethod="pad"
       id="linearGradient296"><stop
         style="stop-opacity:1;stop-color:#9adaf4"
         offset="0"
         id="stop292" /><stop
         style="stop-opacity:1;stop-color:#c1dff4"
         offset="1"
         id="stop294" /></linearGradient><clipPath
       clipPathUnits="userSpaceOnUse"
       id="clipPath300"><path
         d="M -306,254 H 444 V -1080 H -306 Z"
         id="path298"
         inkscape:connector-curvature="0"
         style="clip-rule:evenodd" /></clipPath><clipPath
       clipPathUnits="userSpaceOnUse"
       id="clipPath304"><path
         d="m 36.9029,15.91929 c -0.28541,0 -0.57082,0.06958 -0.83114,0.20875 -0.54259,0.28781 -0.90014,0.83181 -0.94718,1.44856 l -1.37373,17.74641 c -5.82423,4.4374 -10.35314,10.16205 -13.46755,17.03163 -3.07363,6.76837 -4.6324,14.32428 -4.6324,22.44316 0,27.7219 24.38209,50.2789 54.35004,50.2789 29.96482,0 54.35006,-22.557 54.35006,-50.2789 0,-27.72502 -24.38524,-50.28204 -54.35006,-50.28204 -4.98368,0 -9.91718,0.62307 -14.68132,1.85972 L 37.7999,16.16283 c -0.27914,-0.1613 -0.5865,-0.24354 -0.897,-0.24354"
         id="path302"
         inkscape:connector-curvature="0"
         style="clip-rule:evenodd" /></clipPath><clipPath
       clipPathUnits="userSpaceOnUse"
       id="clipPath308"><path
         d="M 0,0 H 138 V 139 H 0 Z"
         id="path306"
         inkscape:connector-curvature="0" /></clipPath></defs><sodipodi:namedview
     pagecolor="#ffffff"
     bordercolor="#666666"
     borderopacity="1"
     objecttolerance="10"
     gridtolerance="10"
     guidetolerance="10"
     inkscape:pageopacity="0"
     inkscape:pageshadow="2"
     inkscape:window-width="1920"
     inkscape:window-height="1016"
     id="namedview192"
     showgrid="false"
     inkscape:zoom="0.90041658"
     inkscape:cx="437.02803"
     inkscape:cy="404.57771"
     inkscape:current-layer="g198"
     inkscape:window-x="0"
     inkscape:window-y="27"
     inkscape:window-maximized="1" /><g
     id="g198"
     inkscape:groupmode="layer"
     inkscape:label="logoSignal(1)"
     transform="matrix(1.3333333,0,0,-1.3333333,0,512)"><rect
       style="opacity:1;vector-effect:none;fill:#2090ea;fill-opacity:0.95320195;stroke:none;stroke-width:5.30330181;stroke-linecap:round;stroke-linejoin:miter;stroke-miterlimit:4;stroke-dasharray:none;stroke-dashoffset:9.07086658;stroke-opacity:1;paint-order:normal"
       id="rect904"
       width="384"
       height="384"
       x="0"
       y="-384"
       transform="scale(1,-1)" /><g
       id="g200" /><g
       id="g204" /><g
       clip-path="url(#clipPath208)"
       id="g394"
       transform="matrix(2.1582994,0,0,2.1582994,42.000001,41.996387)"><g
         id="g310" /><g
         id="g346"><g
           clip-path="url(#clipPath212)"
           id="g344"><g
             clip-path="url(#clipPath216)"
             id="g342"><g
               clip-path="url(#clipPath220)"
               id="g340"><g
                 id="g312" /><g
                 id="g338"><g
                   clip-path="url(#clipPath224)"
                   id="g336"><g
                     id="g314" /><g
                     id="g324"><g
                       clip-path="url(#clipPath228)"
                       id="g322"><g
                         id="g320"><g
                           id="g318"><path
                             d="M 25.67427,0.00167442 H 38.00332 V 10.109954 H 25.67427 Z"
                             style="fill:url(#linearGradient238);stroke:none"
                             id="path316"
                             inkscape:connector-curvature="0" /></g></g></g></g><g
                     id="g334"><g
                       clip-path="url(#clipPath242)"
                       id="g332"><g
                         id="g330"><g
                           id="g328"><path
                             d="M 25,0 H 39 V 11 H 25 Z"
                             style="fill:url(#linearGradient252);stroke:none"
                             id="path326"
                             inkscape:connector-curvature="0" /></g></g></g></g></g></g></g></g></g></g><g
         id="g382"><g
           clip-path="url(#clipPath256)"
           id="g380"><g
             clip-path="url(#clipPath260)"
             id="g378"><g
               clip-path="url(#clipPath264)"
               id="g376"><g
                 id="g348" /><g
                 id="g374"><g
                   clip-path="url(#clipPath268)"
                   id="g372"><g
                     id="g350" /><g
                     id="g360"><g
                       clip-path="url(#clipPath272)"
                       id="g358"><g
                         id="g356"><g
                           id="g354"><path
                             d="M 0,5.969858 H 138 V 138.99996 H 0 Z"
                             style="fill:url(#linearGradient282);stroke:none"
                             id="path352"
                             inkscape:connector-curvature="0" /></g></g></g></g><g
                     id="g370"><g
                       clip-path="url(#clipPath286)"
                       id="g368"><g
                         id="g366"><g
                           id="g364"><path
                             d="M 0,5 H 138 V 139 H 0 Z"
                             style="fill:url(#linearGradient296);stroke:none"
                             id="path362"
                             inkscape:connector-curvature="0" /></g></g></g></g></g></g></g></g></g></g><g
         id="g392"><g
           clip-path="url(#clipPath300)"
           id="g390"><g
             clip-path="url(#clipPath304)"
             id="g388"><g
               clip-path="url(#clipPath308)"
               id="g386"><path
                 d="M 10.6509,130.0767 H 129.351 V 10.91929 H 10.6509 Z"
                 style="fill:#f2f2f2;fill-opacity:1;fill-rule:nonzero;stroke:none"
                 id="path384"
                 inkscape:connector-curvature="0" /></g></g></g></g></g></g></svg>

<svg xmlns="http://www.w3.org/2000/svg" width="512" height="512"><style><![CDATA[.B{clip-rule:evenodd}]]></style><defs><clipPath id="A"><path d="M0 0h138v139H0z"/></clipPath><clipPath id="B"><path d="M-306 254h750v-1334h-750z" class="B"/></clipPath><clipPath id="C"><path d="M25.674 9.016l2.475-7.768A1.78 1.78 0 0 1 29.115.16c.232-.108.483-.158.737-.158a1.78 1.78 0 0 1 .706.149L38.003 3.4l-1.424 3.29-5.63-2.457-1.872 5.88z" class="B"/></clipPath><clipPath id="D"><path d="M0 0h138v139H0z"/></clipPath><clipPath id="E"><path d="M25 0h13v11H25z"/></clipPath><clipPath id="F"><path d="M38.003 10.1V.002h-12.33V10.1z" class="B"/></clipPath><linearGradient x1="537.778" y1="13064.72" x2="537.778" y2="-1014.09" gradientUnits="userSpaceOnUse" spreadMethod="pad" id="G"><stop offset="0" stop-color="#9adaf4"/><stop offset="1" stop-color="#c1dff4"/></linearGradient><clipPath id="H"><path d="M38.003 10.1V.002h-12.33V10.1z" class="B"/></clipPath><linearGradient x1="31.84" y1="138.977" x2="31.84" y2="0" gradientUnits="userSpaceOnUse" spreadMethod="pad" id="I"><stop offset="0" stop-color="#9adaf4"/><stop offset="1" stop-color="#c1dff4"/></linearGradient><clipPath id="J"><path d="M-306 254h750v-1334h-750z" class="B"/></clipPath><clipPath id="K"><path d="M59.3 138.364l.464-3.558c5.137.68 10.466.788 15.635.316l.326 3.574c-2.22.202-4.47.304-6.72.304-3.252 0-6.514-.212-9.704-.636zm22.303-4.093a68.23 68.23 0 0 0 14.957-4.558l1.418 3.292c-5.015 2.19-10.31 3.802-15.73 4.795zm-44.31-2.514l1.56-3.226c4.673 2.28 9.635 4.02 14.75 5.174l-.787 3.504a71.4 71.4 0 0 1-15.522-5.453zm64.885-4.814c4.595-2.543 8.863-5.617 12.677-9.137l2.415 2.647c-4.024 3.7-8.528 6.952-13.373 9.63zM18.54 118.38l2.53-2.533c3.654 3.682 7.784 6.942 12.276 9.68l-1.854 3.068a68.73 68.73 0 0 1-12.953-10.216zm100.7-5.038c3.503-3.94 6.473-8.277 8.826-12.892l3.174 1.64a64.65 64.65 0 0 1-9.34 13.641zM5.4 99.386l3.252-1.483c2.13 4.72 4.896 9.188 8.214 13.28l-2.763 2.274c-3.52-4.336-6.448-9.068-8.703-14.07zm125.197-4.656c1.866-4.9 3.067-10.004 3.566-15.204l3.55.345a61.56 61.56 0 0 1-3.786 16.149zM.013 76.883l3.563-.168a58.25 58.25 0 0 0 2.82 15.355l-3.4 1.123C1.277 87.92.267 82.43.013 76.883zm132.135-19.056l3.428-1.003A61.67 61.67 0 0 1 138 73.23l-3.57.044c-.063-5.24-.83-10.434-2.283-15.447zM0 70.282c.188-6.088.856-11.443 2.032-16.36l3.472.838c-1.12 4.68-1.753 9.798-1.935 15.637zM122.318 38.37l2.835-2.173a63.91 63.91 0 0 1 8.233 14.356l-3.3 1.363a60.42 60.42 0 0 0-7.769-13.546zM3.942 47.538c1.992-5.443 4.695-10.18 8.274-14.46l2.735 2.303c-3.31 3.966-5.815 8.343-7.656 13.394zM106.317 23.52l1.944-3.008c4.648 3.033 8.895 6.604 12.63 10.617l-2.606 2.45c-3.538-3.8-7.562-7.18-11.968-10.06zM16.84 28.255a52.46 52.46 0 0 1 3.695-3.081l3.136-9.862 3.4 1.097-3.312 10.402a1.8 1.8 0 0 1-.634.895c-1.367 1.022-2.675 2.097-3.886 3.204zm69.486-13.52l.884-3.476a71.36 71.36 0 0 1 15.359 5.905l-1.653 3.185c-4.607-2.423-9.513-4.31-14.6-5.614zm-32.52-.525l-11.33-4.943L43.9 5.97l10.748 4.697a68.28 68.28 0 0 1 3.07-.784l.8 3.5c-.953.218-2.07.503-3.52.908a1.75 1.75 0 0 1-.477.066 1.78 1.78 0 0 1-.709-.149zm15.17-1.657l-4.44.054-.132-3.6c1.276-.044 2.697-.054 4.573-.054 3.955 0 7.922.32 11.8.943l-.57 3.55c-3.68-.6-7.455-.9-11.22-.9z" class="B"/></clipPath><clipPath id="L"><path d="M0 0h138v139H0z"/></clipPath><clipPath id="M"><path d="M0 5h138v134H0z"/></clipPath><clipPath id="N"><path d="M138 139V5.97H0V139z" class="B"/></clipPath><linearGradient x1="511.988" y1="139" x2="511.988" y2="-930.969" gradientUnits="userSpaceOnUse" spreadMethod="pad" id="O"><stop offset="0" stop-color="#9adaf4"/><stop offset="1" stop-color="#c1dff4"/></linearGradient><clipPath id="P"><path d="M138 139V5.97H0V139z" class="B"/></clipPath><linearGradient x1="68.998" y1="139" x2="68.998" y2="-.002" gradientUnits="userSpaceOnUse" spreadMethod="pad" id="Q"><stop offset="0" stop-color="#9adaf4"/><stop offset="1" stop-color="#c1dff4"/></linearGradient><clipPath id="R"><path d="M-306 254h750v-1334h-750z" class="B"/></clipPath><clipPath id="S"><path d="M36.903 15.92a1.76 1.76 0 0 0-.831.209 1.79 1.79 0 0 0-.947 1.449L33.75 35.323c-5.824 4.437-10.353 10.162-13.468 17.032C17.2 59.123 15.65 66.68 15.65 74.798c0 27.722 24.382 50.28 54.35 50.28s54.35-22.557 54.35-50.28S99.966 24.516 70 24.516c-4.984 0-9.917.623-14.68 1.86L37.8 16.163c-.28-.16-.587-.244-.897-.244" class="B"/></clipPath><clipPath id="T"><path d="M0 0h138v139H0z"/></clipPath></defs><g transform="matrix(1.333333 0 0 -1.333333 0 512)"><path d="M0 384h384V0H0z" fill="#2090ea" fill-opacity=".953" paint-order="normal"/><g clip-path="url(#A)" transform="matrix(2.158299 0 0 2.158299 42.000001 41.996387)"><g clip-path="url(#B)"><g clip-path="url(#C)"><g clip-path="url(#D)"><g clip-path="url(#E)"><g clip-path="url(#F)"><path d="M25.674.002h12.33V10.1h-12.33z" fill="url(#G)"/></g><g clip-path="url(#H)"><path d="M25 0h14v11H25z" fill="url(#I)"/></g></g></g></g></g><g clip-path="url(#J)"><g clip-path="url(#K)"><g clip-path="url(#L)"><g clip-path="url(#M)"><g clip-path="url(#N)"><path d="M0 5.97h138V139H0z" fill="url(#O)"/></g><g clip-path="url(#P)"><path d="M0 5h138v134H0z" fill="url(#Q)"/></g></g></g></g></g><g clip-path="url(#R)"><g clip-path="url(#S)"><g clip-path="url(#T)"><path d="M10.65 130.077h118.7V10.92H10.65z" fill="#f2f2f2"/></g></g></g></g></g></svg>
